!!!COM: Beethoven
!!!OTL: 32 Variationen fur das pianoforte
!!!Variation: Variation 32 a
**function	**harm	**kern	**kern
*	*	*clefF4	*clefG2
*	*	*k[b-e-a-]	*k[b-e-a-]
*M3/4	*M3/4	*M3/4	*M3/4
*c:	*c:	*c:	*c:
=257	=257	=257	=257
2.T	2.i	32CCLLL	(28cccLL
.	.	32EE-	.
.	.	.	28bb
.	.	32GG	.
.	.	.	28aa
.	.	32CJJ	.
.	.	.	28gg
.	.	32CCLL	.
.	.	.	28ff
.	.	32EE-	.
.	.	.	28ee-
.	.	32GG	.
.	.	.	28ddJJ)
.	.	32CJJJ	.
.	.	32CCLLL	(28ccLL
.	.	32EE-	.
.	.	.	28dd
.	.	32GG	.
.	.	.	28ee-
.	.	32CJJ	.
.	.	.	28ff
.	.	32CCLL	.
.	.	.	28gg
.	.	32EE-	.
.	.	.	28aa
.	.	32GG	.
.	.	.	28bbJJ)
.	.	32CJJJ	.
.	.	32CCLLL	32cccLLL
.	.	32EE-	32bb
.	.	32GG	32aa
.	.	32CJJ	32ggJJ
.	.	32CCLL	32ffLL
.	.	32EE-	32ee-
.	.	32GG	32dd
.	.	32CJJJ	32ccJJJ
=258	=258	=258	=258
2.T	2.V7	(40CCLLL	(28dddLL
.	.	40DD	.
.	.	.	28ccc
.	.	40FF	.
.	.	.	28bb
.	.	40GG	.
.	.	40BBJJ)	.
.	.	.	28aa-
.	.	(40CCLL	.
.	.	.	28gg
.	.	40DD	.
.	.	40FF	.
.	.	.	28ff
.	.	40GG	.
.	.	.	28ee-JJ)
.	.	40BBJJJ)	.
.	.	(40CCLLL	(28ddLL
.	.	40DD	.
.	.	.	28ee-
.	.	40FF	.
.	.	.	28ff
.	.	40GG	.
.	.	40BBJJ)	.
.	.	.	28gg
.	.	(40CCLL	.
.	.	.	28aa
.	.	40DD	.
.	.	40FF	.
.	.	.	28bb
.	.	40GG	.
.	.	.	28cccJJ)
.	.	40BBJJJ)	.
.	.	(40CCLLL	32dddLLL
.	.	40DD	.
.	.	.	32ccc
.	.	40FF	.
.	.	.	32bb
.	.	40GG	.
.	.	.	32aa-JJ
.	.	40BBJJ)	.
.	.	(40CCLL	32ggLL
.	.	40DD	.
.	.	.	32ff
.	.	40FF	.
.	.	.	32ee-
.	.	40GG	.
.	.	.	32ddJJJ
.	.	40BBJJJ)	.
=259	=259	=259	=259
2.T	2.V7/IV	(40CCLLL	(28eeeLL
.	.	40EE	.
.	.	.	28ddd
.	.	40GG	.
.	.	.	28ccc
.	.	40BB-	.
.	.	40CJJ)	.
.	.	.	28bb-
.	.	(40CCLL	.
.	.	.	28aa
.	.	40EE	.
.	.	40GG	.
.	.	.	28gg
.	.	40BB-	.
.	.	.	28ffJJ)
.	.	40CJJJ)	.
.	.	(40CCLLL	(28eeLL
.	.	40EE	.
.	.	.	28ff
.	.	40GG	.
.	.	.	28gg
.	.	40BB-	.
.	.	40CJJ)	.
.	.	.	28aa
.	.	(40CCLL	.
.	.	.	28bb-
.	.	40EE	.
.	.	40GG	.
.	.	.	28ccc
.	.	40BB-	.
.	.	.	28dddJJ)
.	.	40CJJJ)	.
.	.	(40CCLLL	32eeeLLL
.	.	40EE	.
.	.	.	32ddd
.	.	40GG	.
.	.	.	32ccc
.	.	40BB-	.
.	.	.	32bb-JJ
.	.	40CJJ)	.
.	.	(40CCLL	32aaLL
.	.	40EE	.
.	.	.	32gg
.	.	40GG	.
.	.	.	32ff
.	.	40BB-	.
.	.	.	32eeJJJ
.	.	40CJJJ)	.
=260	=260	=260	=260
2.T	2.IVc	32CCLLL	(28fffLL
.	.	32FF	.
.	.	.	28eee
.	.	32AA	.
.	.	.	28ddd
.	.	32CJJ	.
.	.	.	28ccc
.	.	32CCLL	.
.	.	.	28bb-
.	.	32FF	.
.	.	.	28aa
.	.	32AA	.
.	.	.	28ggJJ)
.	.	32CJJJ	.
.	.	32CCLLL	(28ffLL
.	.	32FF	.
.	.	.	28gg
.	.	32AA	.
.	.	.	28aa
.	.	32CJJ	.
.	.	.	28bb-
.	.	32CCLL	.
.	.	.	28ccc
.	.	32FF	.
.	.	.	28ddd
.	.	32AA	.
.	.	.	28eeeJJ)
.	.	32CJJJ	.
.	.	32CCLLL	32fffLLL
.	.	32FF	32eee
.	.	32AA	32ddd
.	.	32CJJ	32cccJJ
.	.	32CCLL	32bb-LL
.	.	32FF	32aa
.	.	32AA	32gg
.	.	32CJJJ	32ffJJJ
=261	=261	=261	=261
2.T	2.viioD7c/V	40CCLLL	(28fff#LL
.	.	40EE-	.
.	.	.	28eee-
.	.	40FF#	.
.	.	.	28ddd
.	.	40AA	.
.	.	40CJJ	.
.	.	.	28ccc
.	.	40CCLL	.
.	.	.	28bb-
.	.	40EE-	.
.	.	40FF#	.
.	.	.	28aa
.	.	40AA	.
.	.	.	28ggJJ)
.	.	40CJJJ	.
.	.	40CCLLL	(28ff#LL
.	.	40EE-	.
.	.	.	28gg
.	.	40FF#	.
.	.	.	28aa
.	.	40AA	.
.	.	40CJJ	.
.	.	.	28bb-
.	.	40CCLL	.
.	.	.	28ccc
.	.	40EE-	.
.	.	40FF#	.
.	.	.	28ddd
.	.	40AA	.
.	.	.	28eee-JJ)
.	.	40CJJJ	.
.	.	40CCLLL	32fff#LLL
.	.	40EE-	.
.	.	.	32eee-
.	.	40FF#	.
.	.	.	32ddd
.	.	40AA	.
.	.	.	32cccJJ
.	.	40CJJ	.
.	.	40CCLL	32bb-LL
.	.	40EE-	.
.	.	.	32aa
.	.	40FF#	.
.	.	.	32gg
.	.	40AA	.
.	.	.	32ff#JJJ
.	.	40CJJJ	.
=262	=262	=262	=262
4T	4V7/IV	40CCLLL	32gggLLL
.	.	40EE	.
.	.	.	32fff
.	.	40GG	.
.	.	.	32eee
.	.	40BB-	.
.	.	.	32dddJJ
.	.	40CJJ	.
.	.	40CCLL	32cccLL
.	.	40EE	.
.	.	.	32bb-
.	.	40GG	.
.	.	.	32aa-
.	.	40BB-	.
.	.	.	32ggJJJ
.	.	40CJJJ	.
2P	2ivc	32CCLLL	(28aa-LL
.	.	32FF	.
.	.	.	28bb-
.	.	32AA-	.
.	.	.	28ccc
.	.	32CJJ	.
.	.	.	28ddd
.	.	32CCLL	.
.	.	.	28eee
.	.	32FF	.
.	.	.	28fff
.	.	32AA-	.
.	.	.	28gggJJ)
.	.	32CJJJ	.
.	.	32CCLLL	32aaa-LLL
.	.	32FF	32ggg
.	.	32AA-	32fff
.	.	32CJJ	32eeeJJ
.	.	32CCLL	32dddLL
.	.	32FF	32ccc
.	.	32AA-	32bb-
.	.	32CJJJ	32aa-JJJ
=263	=263	=263	=263
4D	4viioD7	40CCLLL	(28bbLL
.	.	40DD	.
.	.	.	28aa-
.	.	40FF	.
.	.	.	28gg
.	.	40AA-	.
.	.	40BBJJ	.
.	.	.	28ff
.	.	40CCLL	.
.	.	.	28ee-
.	.	40DD	.
.	.	40FF	.
.	.	.	28dd
.	.	40AA-	.
.	.	.	28ccJJ)
.	.	40BBJJJ	.
2D	2V7	40CCLLL	(28bLL
.	.	40DD	.
.	.	.	28cc
.	.	40FF	.
.	.	.	28dd
.	.	40GG	.
.	.	40BBJJ	.
.	.	.	28ee-
.	.	40CCLL	.
.	.	.	28ff
.	.	40DD	.
.	.	40FF	.
.	.	.	28gg
.	.	40GG	.
.	.	.	28aaJJ)
.	.	40BBJJJ	.
.	.	40CCLLL	32bbLLL
.	.	40DD	.
.	.	.	32ccc
.	.	40FF	.
.	.	.	32ddd
.	.	40GG	.
.	.	.	32eee-JJ
.	.	40BBJJ	.
.	.	40CCLL	32fffLL
.	.	40DD	.
.	.	.	32ggg
.	.	40FF	.
.	.	.	32aaa
.	.	40GG	.
.	.	.	32bbbJJJ
.	.	40BBJJJ	.
=264	=264	=264	=264
2.T	2.i	8CCL 8EE- 8GG 8C	24ccccLL
.	.	.	24ggg
.	.	.	24fffJ
*	*	*clefG2	*
.	.	8e-J 8g	24eee-L
.	.	.	24ddd
.	.	.	24cccJJ
.	.	8cL 8e-	24eee-LL
.	.	.	24ggg
.	.	.	24fffJ
.	.	8e-J 8g	24eee-L
.	.	.	24ddd
.	.	.	24cccJJ
.	.	8cL 8e-	24eee-LL
.	.	.	24ggg
.	.	.	24fffJ
.	.	8e-J 8g	24eee-L
.	.	.	24ddd
.	.	.	24cccJJ
=265	=265	=265	=265
*	*	*clefF4	*
2.T	2.V7	8GL 8d	24bbLL
.	.	.	24ddd
.	.	.	24cccJ
.	.	8dJ 8f	24bbL
.	.	.	24aa
.	.	.	24ggJJ
.	.	8GL 8d	24bbLL
.	.	.	24ddd
.	.	.	24cccJ
.	.	8dJ 8f	24bbL
.	.	.	24aa
.	.	.	24ggJJ
.	.	8GL 8d	24ffLL
.	.	.	24aa-
.	.	.	24ggJ
.	.	8dJ 8f	24ffL
.	.	.	24ee-
.	.	.	24ddJJ
=266	=266	=266	=266
2.T	2.i	8CL 8E-	24ee-LL
.	.	.	24gg
.	.	.	24ffJ
.	.	8E-J 8G	24ee-L
.	.	.	24dd
.	.	.	24ccJJ
.	.	8CL 8E-	24ee-LL
.	.	.	24gg
.	.	.	24ffJ
.	.	8E-J 8G	24ee-L
.	.	.	24dd
.	.	.	24ccJJ
.	.	8CL 8E-	24ee-LL
.	.	.	24gg
.	.	.	24ffJ
.	.	8E-J 8G	24ee-L
.	.	.	24dd
.	.	.	24ccJJ
=267	=267	=267	=267
2.T	2.V7	8GGL 8D	24bLL
.	.	.	24dd
.	.	.	24ccJ
.	.	8DJ 8F	24bL
.	.	.	24a
.	.	.	24gJJ
.	.	8GGL 8D	24bLL
.	.	.	24dd
.	.	.	24ccJ
.	.	8DJ 8F	24bL
.	.	.	24a
.	.	.	24gJJ
.	.	8GGL 8D	24fLL
.	.	.	24a-
.	.	.	24gJ
.	.	8DJ 8F	24fL
.	.	.	24e-
.	.	.	24dJJ
=268	=268	=268	=268
4T	4i	8CL 8E-	24e-LL
.	.	.	24g
.	.	.	24fJ
.	.	8E-J 8G	24e-L
.	.	.	24d
.	.	.	24cJJ
2T	2V7m9	[24GGLL	8r
.	.	[24GG [24D	.
.	.	[24GGJ [24D [24F	.
.	.	8GGJ 8D 8F [8A-	24BLL
.	.	.	24d
.	.	.	24fJJ
.	.	8A-L]	24a-LL
.	.	.	24f
.	.	.	24dJ
.	.	8GJ	24gL
.	.	.	24f
.	.	.	24dJJ
=269	=269	=269	=269
4T	4i	8CL 8E-	24e-LL
.	.	.	24g
.	.	.	24fJ
.	.	8E-J 8G	24e-L
.	.	.	24d
.	.	.	24cJJ
2T	2V7m9	[24GGLL	8r
.	.	[24GG [24D	.
.	.	[24GGJ [24D [24F	.
.	.	8GGJ 8D 8F [8A-	24BLL
.	.	.	24d
.	.	.	24fJJ
.	.	8A-L]	24a-LL
.	.	.	24f
.	.	.	24dJ
.	.	8GJ	24gL
.	.	.	24f
.	.	.	24dJJ
=270	=270	=270	=270
4T	4i	8CL 8E-	24e-LL
.	.	.	24g
.	.	.	24fJ
.	.	8E-J 8G	24e-L
.	.	.	24d
.	.	.	24cJJ
2T	2V7m9	[24GGLL	24BLL
.	.	[24GG [24D	24d
.	.	[24GGJ [24D [24F	24fJ
.	.	8GGJ 8D 8F 8A-	24a-L
.	.	.	24f
.	.	.	24dJJ
.	.	4r	24bLL
.	.	.	24a-
.	.	.	24fJ
.	.	.	24ddL
.	.	.	24b
.	.	.	24a-JJ
=271	=271	=271	=271
2.T	2.viioD7	2.r	24ffLL
.	.	.	24dd
.	.	.	24bJ
.	.	.	24aa-L
.	.	.	24ff
.	.	.	24ddJJ
.	.	.	24bbLL
.	.	.	24aa-
.	.	.	24ffJ
.	.	.	24dddL
.	.	.	24bb
.	.	.	24aa-JJ
.	.	.	24fffLL
.	.	.	24ddd
.	.	.	24bbJ
.	.	.	24aaa-L
.	.	.	24fff
.	.	.	24dddJJ
=272	=272	=272	=272
2.T	2.viioD7	2.r	24bbLL
.	.	.	24ddd
.	.	.	24fffJ
.	.	.	24aa-L
.	.	.	24bb
.	.	.	24dddJJ
.	.	.	24ffLL
.	.	.	24aa-
.	.	.	24bbJ
.	.	.	24ddL
.	.	.	24ff
.	.	.	24aa-JJ
.	.	.	24bLL
.	.	.	24dd
.	.	.	24ffJ
.	.	.	24a-L
.	.	.	24b
.	.	.	24ddJJ
=273	=273	=273	=273
2.T	2.V	2.r	24gLL
.	.	.	24a-
.	.	.	24gJ
.	.	.	24a-L
.	.	.	24b-
.	.	.	24a-JJ
.	.	.	24gLL
.	.	.	24a-
.	.	.	24gJ
.	.	.	24a-L
.	.	.	24b-
.	.	.	24a-JJ
.	.	.	24gLL
.	.	.	24a-
.	.	.	24gJ
.	.	.	24a-L
.	.	.	24b-
.	.	.	24a-JJ
=274	=274	=274	=274
2.T	2.V	2.r	24gLL
.	.	.	24a-
.	.	.	24gJ
.	.	.	24a-L
.	.	.	24b-
.	.	.	24a-JJ
.	.	.	24aLL
.	.	.	24b-
.	.	.	24aJ
.	.	.	24b-L
.	.	.	24cc
.	.	.	24b-JJ
.	.	.	24bLL
.	.	.	24cc
.	.	.	24bJ
.	.	.	24gL
.	.	.	24a-
.	.	.	24gJJ
*-	*-	*-	*-
